assets/img/experience.svg

<svg xmlns="http://www.w3.org/2000/svg" style="margin:auto;background:0 0;display:block;shape-rendering:auto" width="196" height="33" preserveAspectRatio="xMidYMid"><style>@keyframes breath-333aa2b1-464c-4786-92ee-f0803c1d9adb{0%{animation-timing-function:cubic-bezier(.9647,.2413,-.0705,.7911);transform:scale(.9099999999999999)}51%{animation-timing-function:cubic-bezier(.9226,.2631,-.0308,.7628);transform:scale(1.02994)}to{transform:scale(.9099999999999999)}}</style><g style="transform-origin:98px 16.5px;transform:scale(1)"><g style="transform:scale(.91);transform-origin:-83.161px -2.93038px;animation:1s linear -.6s infinite normal forwards running breath-333aa2b1-464c-4786-92ee-f0803c1d9adb"><path d="M.76-24.41v-.79h18.72l.36 7.13h-.65q-1.51-3.64-3.17-4.99t-4.86-1.35H9.9v11.13h1.22q1.7 0 2.85-1.28 1.15-1.28 1.62-3.44h.54v10.66h-.61q-.65-2.7-1.75-3.86-1.1-1.15-3.01-1.15H9.9V-.79h1.37q3.31 0 5.63-1.98t3.19-5.08h.72L20.52 0H.76v-.79h2.12v-23.62H.76" fill="#fd3b3b" stroke-width="none" transform="translate(4.054 26.17)" style="fill:#fd3b3b" class="path"/></g><g style="transform:scale(.91);transform-origin:-60.776px 1.09962px;animation:1s linear -.54s infinite normal forwards running breath-333aa2b1-464c-4786-92ee-f0803c1d9adb"><path d="m32.11-16.49 3.57 5.87 4.24-5.87h-2.59v-.65h5.37v.65h-1.88l-4.68 6.63 5.87 9.21h1.87V0H31.86v-.65h2.56l-3.96-6.48-4.11 6.48h2.38V0h-5.65v-.65h2.37l4.57-7.2-5.47-8.64h-2.09v-.65h12.17v.65h-2.52" fill="#fd3b3b" stroke-width="none" transform="translate(4.054 26.17)" style="fill:#00e2ff" class="path"/></g><g style="transform:scale(.91);transform-origin:-39.661px 5.20462px;animation:1s linear -.48s infinite normal forwards running breath-333aa2b1-464c-4786-92ee-f0803c1d9adb"><path d="M57.38-9.68q0-3.71-.36-4.99-.36-1.28-1.4-1.28t-1.87 1.35q-.83 1.35-.83 3.62v6.59q0 1.55.61 2.63.61 1.08 1.8 1.08t1.62-1.59q.43-1.58.43-5.54v-1.87zm-13.06-7.46h8.53v2.85q1.4-3.21 4.97-3.21 3.09 0 4.8 2.24 1.71 2.23 1.71 6.76 0 4.54-1.85 6.7Q60.62.36 56.92.36q-1.73 0-2.6-.43-.86-.43-1.4-1.33v9.32h4.64v.65H44.24v-.65h1.98v-24.41h-1.9v-.65" fill="#fd3b3b" stroke-width="none" transform="translate(4.054 26.17)" style="fill:#49ff00" class="path"/></g><g style="transform:scale(.91);transform-origin:-19.7996px 1.09962px;animation:1s linear -.42s infinite normal forwards running breath-333aa2b1-464c-4786-92ee-f0803c1d9adb"><path d="M74.88.36q-4.64 0-6.97-2.39-2.32-2.4-2.32-6.66 0-4.27 2.61-6.54 2.61-2.27 6.64-2.27 8.18 0 7.85 8.21H72.54v1.41q0 3.52.9 5.32.9 1.8 3.13 1.8 4.18 0 5.47-4.46l.65.11q-.68 2.59-2.46 4.03Q78.44.36 74.88.36zm-2.3-12.13v1.76h3.7v-1.76q0-2.92-.34-3.98t-1.37-1.06q-1.02 0-1.51 1.13-.48 1.14-.48 3.91" fill="#fd3b3b" stroke-width="none" transform="translate(4.054 26.17)" style="fill:#ff00fb" class="path"/></g><g style="transform:scale(.91);transform-origin:-1.30101px .919622px;animation:1s linear -.36s infinite normal forwards running breath-333aa2b1-464c-4786-92ee-f0803c1d9adb"><path d="M96.01-16.13q-1.33 0-2.34 1.73-1.01 1.73-1.01 4.1v9.65h2.56V0H83.99v-.65h1.98v-15.84h-1.98v-.65h8.67v3.46q.47-1.84 1.8-2.83 1.34-.99 3.03-.99 1.69 0 2.75.96 1.06.95 1.06 2.7 0 1.74-.79 2.68-.79.94-2.43.94-1.64 0-2.41-1.08-.77-1.08-.2-2.99h1.3q.9-1.84-.76-1.84" fill="#fd3b3b" stroke-width="none" transform="translate(4.054 26.17)" style="fill:#f5c80a" class="path"/></g><g style="transform:scale(.91);transform-origin:13.244px -13.3004px;animation:1s linear -.3s infinite normal forwards running breath-333aa2b1-464c-4786-92ee-f0803c1d9adb"><path d="M107.1-19.62q-1.91 0-2.72-.97-.81-.97-.81-2.41 0-1.44.88-2.38.89-.94 2.69-.94 1.8 0 2.73.85.94.85.94 2.41 0 1.57-.9 2.5-.9.94-2.81.94" fill="#fd3b3b" stroke-width="none" transform="translate(4.054 26.17)" style="fill:#fd3b3b" class="path"/></g><g style="transform:scale(.91);transform-origin:13.134px 1.09962px;animation:1s linear -.24s infinite normal forwards running breath-333aa2b1-464c-4786-92ee-f0803c1d9adb"><path d="M101.66-16.49v-.65h8.82V-.65h2.02V0h-10.69v-.65h1.98v-15.84h-2.13" fill="#fd3b3b" stroke-width="none" transform="translate(4.054 26.17)" style="fill:#00e2ff" class="path"/></g><g style="transform:scale(.91);transform-origin:28.01px 1.09962px;animation:1s linear -.18s infinite normal forwards running breath-333aa2b1-464c-4786-92ee-f0803c1d9adb"><path d="M122.69.36q-4.65 0-6.97-2.39-2.32-2.4-2.32-6.66 0-4.27 2.61-6.54 2.61-2.27 6.64-2.27 8.17 0 7.85 8.21h-10.15v1.41q0 3.52.9 5.32.9 1.8 3.13 1.8 4.18 0 5.47-4.46l.65.11q-.68 2.59-2.47 4.03-1.78 1.44-5.34 1.44zm-2.31-12.13v1.76h3.71v-1.76q0-2.92-.34-3.98t-1.37-1.06q-1.02 0-1.51 1.13-.49 1.14-.49 3.91" fill="#fd3b3b" stroke-width="none" transform="translate(4.054 26.17)" style="fill:#49ff00" class="path"/></g><g style="transform:scale(.91);transform-origin:48.739px .919622px;animation:1s linear -.12s infinite normal forwards running breath-333aa2b1-464c-4786-92ee-f0803c1d9adb"><path d="M131.87-16.49v-.65h8.67v3.32q.58-1.66 1.77-2.67t3.6-1.01q5.58 0 5.58 6.02V-.65h2.01V0h-10.18v-.65h1.47v-11.7q0-2.16-.29-2.79-.28-.63-1.04-.63-1.15 0-2.03 1.51-.89 1.52-.89 3.68v9.93h1.55V0h-10.22v-.65h1.98v-15.84h-1.98" fill="#fd3b3b" stroke-width="none" transform="translate(4.054 26.17)" style="fill:#ff00fb" class="path"/></g><g style="transform:scale(.91);transform-origin:68.359px 1.09962px;animation:1s linear -.06s infinite normal forwards running breath-333aa2b1-464c-4786-92ee-f0803c1d9adb"><path d="M164.05-16.85q-1.58 0-2.27 1.73-.68 1.73-.68 5.72v1.88q0 3.56.79 5.11.79 1.55 2.92 1.55 2.12 0 3.38-1.44 1.26-1.44 1.62-3.28l.65.07q-.68 3.1-2.52 4.47-1.87 1.4-5.15 1.4-4.17 0-6.41-2.25-2.23-2.25-2.23-6.59t2.54-6.68q2.54-2.34 7.07-2.34 3.21 0 4.9 1.25 1.69 1.24 1.69 3.11 0 1.87-.81 2.74-.81.86-2.23.86t-2.29-.76q-.86-.75-.86-2.23 0-.65.18-1.29h1.19q.25-.72.25-1.3 0-1.73-1.73-1.73" fill="#fd3b3b" stroke-width="none" transform="translate(4.054 26.17)" style="fill:#f5c80a" class="path"/></g><g style="transform:scale(.91);transform-origin:86.15px 1.09962px;animation:1s linear 0s infinite normal forwards running breath-333aa2b1-464c-4786-92ee-f0803c1d9adb"><path d="M180.83.36q-4.65 0-6.97-2.39-2.32-2.4-2.32-6.66 0-4.27 2.61-6.54 2.61-2.27 6.64-2.27 8.17 0 7.85 8.21h-10.15v1.41q0 3.52.9 5.32.9 1.8 3.13 1.8 4.18 0 5.47-4.46l.65.11q-.68 2.59-2.47 4.03-1.78 1.44-5.34 1.44zm-2.31-12.13v1.76h3.71v-1.76q0-2.92-.34-3.98t-1.37-1.06q-1.02 0-1.51 1.13-.49 1.14-.49 3.91" fill="#fd3b3b" stroke-width="none" transform="translate(4.054 26.17)" style="fill:#fd3b3b" class="path"/></g></g></svg>

<?xml version="1.0" encoding="utf-8"?>
<svg xmlns="http://www.w3.org/2000/svg" style="margin: auto; background: none; display: block; shape-rendering: auto;" width="196" height="33" preserveAspectRatio="xMidYMid">
<style type="text/css">
  text {
    text-anchor: middle; font-size: 36px; opacity: 0;
  }
</style>
<g style="transform-origin:98px 16.5px;transform:scale(1)">
<g transform="translate(98,16.5)">
  <g transform="translate(0,0)"><g class="path" style="transform: scale(0.91); transform-origin: -83.161px -2.93038px; animation: 1s linear -0.6s infinite normal forwards running breath-333aa2b1-464c-4786-92ee-f0803c1d9adb;"><path d="M0.76-24.41L0.76-25.20L19.48-25.20L19.84-18.07L19.19-18.07L19.19-18.07Q17.68-21.71 16.02-23.06L16.02-23.06L16.02-23.06Q14.36-24.41 11.16-24.41L11.16-24.41L9.90-24.41L9.90-13.28L11.12-13.28L11.12-13.28Q12.82-13.28 13.97-14.56L13.97-14.56L13.97-14.56Q15.12-15.84 15.59-18.00L15.59-18.00L16.13-18.00L16.13-7.34L15.52-7.34L15.52-7.34Q14.87-10.04 13.77-11.20L13.77-11.20L13.77-11.20Q12.67-12.35 10.76-12.35L10.76-12.35L9.90-12.35L9.90-0.79L11.27-0.79L11.27-0.79Q14.58-0.79 16.90-2.77L16.90-2.77L16.90-2.77Q19.22-4.75 20.09-7.85L20.09-7.85L20.81-7.85L20.52 0L0.76 0L0.76-0.79L2.88-0.79L2.88-24.41L0.76-24.41" fill="#fd3b3b" stroke="none" stroke-width="none" transform="translate(-93.94600486755371,9.669620993354108)" style="fill: rgb(253, 59, 59);"></path></g><g class="path" style="transform: scale(0.91); transform-origin: -60.776px 1.09962px; animation: 1s linear -0.54s infinite normal forwards running breath-333aa2b1-464c-4786-92ee-f0803c1d9adb;"><path d="M32.11-16.49L35.68-10.62L39.92-16.49L37.33-16.49L37.33-17.14L42.70-17.14L42.70-16.49L40.82-16.49L36.14-9.86L42.01-0.65L43.88-0.65L43.88 0L31.86 0L31.86-0.65L34.42-0.65L30.46-7.13L26.35-0.65L28.73-0.65L28.73 0L23.08 0L23.08-0.65L25.45-0.65L30.02-7.85L24.55-16.49L22.46-16.49L22.46-17.14L34.63-17.14L34.63-16.49L32.11-16.49" fill="#fd3b3b" stroke="none" stroke-width="none" transform="translate(-93.94600486755371,9.669620993354108)" style="fill: rgb(0, 226, 255);"></path></g><g class="path" style="transform: scale(0.91); transform-origin: -39.661px 5.20462px; animation: 1s linear -0.48s infinite normal forwards running breath-333aa2b1-464c-4786-92ee-f0803c1d9adb;"><path d="M57.38-9.68L57.38-9.68Q57.38-13.39 57.02-14.67L57.02-14.67L57.02-14.67Q56.66-15.95 55.62-15.95L55.62-15.95L55.62-15.95Q54.58-15.95 53.75-14.60L53.75-14.60L53.75-14.60Q52.92-13.25 52.92-10.98L52.92-10.98L52.92-4.39L52.92-4.39Q52.92-2.84 53.53-1.76L53.53-1.76L53.53-1.76Q54.14-0.68 55.33-0.68L55.33-0.68L55.33-0.68Q56.52-0.68 56.95-2.27L56.95-2.27L56.95-2.27Q57.38-3.85 57.38-7.81L57.38-7.81L57.38-9.68zM44.32-17.14L52.85-17.14L52.85-14.29L52.85-14.29Q54.25-17.50 57.82-17.50L57.82-17.50L57.82-17.50Q60.91-17.50 62.62-15.26L62.62-15.26L62.62-15.26Q64.33-13.03 64.33-8.50L64.33-8.50L64.33-8.50Q64.33-3.96 62.48-1.80L62.48-1.80L62.48-1.80Q60.62 0.36 56.92 0.36L56.92 0.36L56.92 0.36Q55.19 0.36 54.32-0.07L54.32-0.07L54.32-0.07Q53.46-0.50 52.92-1.40L52.92-1.40L52.92 7.92L57.56 7.92L57.56 8.57L44.24 8.57L44.24 7.92L46.22 7.92L46.22-16.49L44.32-16.49L44.32-17.14" fill="#fd3b3b" stroke="none" stroke-width="none" transform="translate(-93.94600486755371,9.669620993354108)" style="fill: rgb(73, 255, 0);"></path></g><g class="path" style="transform: scale(0.91); transform-origin: -19.7996px 1.09962px; animation: 1s linear -0.42s infinite normal forwards running breath-333aa2b1-464c-4786-92ee-f0803c1d9adb;"><path d="M74.88 0.36L74.88 0.36Q70.24 0.36 67.91-2.03L67.91-2.03L67.91-2.03Q65.59-4.43 65.59-8.69L65.59-8.69L65.59-8.69Q65.59-12.96 68.20-15.23L68.20-15.23L68.20-15.23Q70.81-17.50 74.84-17.50L74.84-17.50L74.84-17.50Q83.02-17.50 82.69-9.29L82.69-9.29L72.54-9.29L72.54-7.88L72.54-7.88Q72.54-4.36 73.44-2.56L73.44-2.56L73.44-2.56Q74.34-0.76 76.57-0.76L76.57-0.76L76.57-0.76Q80.75-0.76 82.04-5.22L82.04-5.22L82.69-5.11L82.69-5.11Q82.01-2.52 80.23-1.08L80.23-1.08L80.23-1.08Q78.44 0.36 74.88 0.36L74.88 0.36zM72.58-11.77L72.58-10.01L76.28-10.01L76.28-11.77L76.28-11.77Q76.28-14.69 75.94-15.75L75.94-15.75L75.94-15.75Q75.60-16.81 74.57-16.81L74.57-16.81L74.57-16.81Q73.55-16.81 73.06-15.68L73.06-15.68L73.06-15.68Q72.58-14.54 72.58-11.77L72.58-11.77" fill="#fd3b3b" stroke="none" stroke-width="none" transform="translate(-93.94600486755371,9.669620993354108)" style="fill: rgb(255, 0, 251);"></path></g><g class="path" style="transform: scale(0.91); transform-origin: -1.30101px 0.919622px; animation: 1s linear -0.36s infinite normal forwards running breath-333aa2b1-464c-4786-92ee-f0803c1d9adb;"><path d="M96.01-16.13L96.01-16.13L96.01-16.13Q94.68-16.13 93.67-14.40L93.67-14.40L93.67-14.40Q92.66-12.67 92.66-10.30L92.66-10.30L92.66-0.65L95.22-0.65L95.22 0L83.99 0L83.99-0.65L85.97-0.65L85.97-16.49L83.99-16.49L83.99-17.14L92.66-17.14L92.66-13.68L92.66-13.68Q93.13-15.52 94.46-16.51L94.46-16.51L94.46-16.51Q95.80-17.50 97.49-17.50L97.49-17.50L97.49-17.50Q99.18-17.50 100.24-16.54L100.24-16.54L100.24-16.54Q101.30-15.59 101.30-13.84L101.30-13.84L101.30-13.84Q101.30-12.10 100.51-11.16L100.51-11.16L100.51-11.16Q99.72-10.22 98.08-10.22L98.08-10.22L98.08-10.22Q96.44-10.22 95.67-11.30L95.67-11.30L95.67-11.30Q94.90-12.38 95.47-14.29L95.47-14.29L96.77-14.29L96.77-14.29Q97.67-16.13 96.01-16.13" fill="#fd3b3b" stroke="none" stroke-width="none" transform="translate(-93.94600486755371,9.669620993354108)" style="fill: rgb(245, 200, 10);"></path></g><g class="path" style="transform: scale(0.91); transform-origin: 13.244px -13.3004px; animation: 1s linear -0.3s infinite normal forwards running breath-333aa2b1-464c-4786-92ee-f0803c1d9adb;"><path d="M107.10-19.62L107.10-19.62L107.10-19.62Q105.19-19.62 104.38-20.59L104.38-20.59L104.38-20.59Q103.57-21.56 103.57-23.00L103.57-23.00L103.57-23.00Q103.57-24.44 104.45-25.38L104.45-25.38L104.45-25.38Q105.34-26.32 107.14-26.32L107.14-26.32L107.14-26.32Q108.94-26.32 109.87-25.47L109.87-25.47L109.87-25.47Q110.81-24.62 110.81-23.06L110.81-23.06L110.81-23.06Q110.81-21.49 109.91-20.56L109.91-20.56L109.91-20.56Q109.01-19.62 107.10-19.62" fill="#fd3b3b" stroke="none" stroke-width="none" transform="translate(-93.94600486755371,9.669620993354108)" style="fill: rgb(253, 59, 59);"></path></g><g class="path" style="transform: scale(0.91); transform-origin: 13.134px 1.09962px; animation: 1s linear -0.24s infinite normal forwards running breath-333aa2b1-464c-4786-92ee-f0803c1d9adb;"><path d="M101.66-16.49L101.66-17.14L110.48-17.14L110.48-0.65L112.50-0.65L112.50 0L101.81 0L101.81-0.65L103.79-0.65L103.79-16.49L101.66-16.49" fill="#fd3b3b" stroke="none" stroke-width="none" transform="translate(-93.94600486755371,9.669620993354108)" style="fill: rgb(0, 226, 255);"></path></g><g class="path" style="transform: scale(0.91); transform-origin: 28.01px 1.09962px; animation: 1s linear -0.18s infinite normal forwards running breath-333aa2b1-464c-4786-92ee-f0803c1d9adb;"><path d="M122.69 0.36L122.69 0.36Q118.04 0.36 115.72-2.03L115.72-2.03L115.72-2.03Q113.40-4.43 113.40-8.69L113.40-8.69L113.40-8.69Q113.40-12.96 116.01-15.23L116.01-15.23L116.01-15.23Q118.62-17.50 122.65-17.50L122.65-17.50L122.65-17.50Q130.82-17.50 130.50-9.29L130.50-9.29L120.35-9.29L120.35-7.88L120.35-7.88Q120.35-4.36 121.25-2.56L121.25-2.56L121.25-2.56Q122.15-0.76 124.38-0.76L124.38-0.76L124.38-0.76Q128.56-0.76 129.85-5.22L129.85-5.22L130.50-5.11L130.50-5.11Q129.82-2.52 128.03-1.08L128.03-1.08L128.03-1.08Q126.25 0.36 122.69 0.36L122.69 0.36zM120.38-11.77L120.38-10.01L124.09-10.01L124.09-11.77L124.09-11.77Q124.09-14.69 123.75-15.75L123.75-15.75L123.75-15.75Q123.41-16.81 122.38-16.81L122.38-16.81L122.38-16.81Q121.36-16.81 120.87-15.68L120.87-15.68L120.87-15.68Q120.38-14.54 120.38-11.77L120.38-11.77" fill="#fd3b3b" stroke="none" stroke-width="none" transform="translate(-93.94600486755371,9.669620993354108)" style="fill: rgb(73, 255, 0);"></path></g><g class="path" style="transform: scale(0.91); transform-origin: 48.739px 0.919622px; animation: 1s linear -0.12s infinite normal forwards running breath-333aa2b1-464c-4786-92ee-f0803c1d9adb;"><path d="M131.87-16.49L131.87-17.14L140.54-17.14L140.54-13.82L140.54-13.82Q141.12-15.48 142.31-16.49L142.31-16.49L142.31-16.49Q143.50-17.50 145.91-17.50L145.91-17.50L145.91-17.50Q151.49-17.50 151.49-11.48L151.49-11.48L151.49-0.65L153.50-0.65L153.50 0L143.32 0L143.32-0.65L144.79-0.65L144.79-12.35L144.79-12.35Q144.79-14.51 144.50-15.14L144.50-15.14L144.50-15.14Q144.22-15.77 143.46-15.77L143.46-15.77L143.46-15.77Q142.31-15.77 141.43-14.26L141.43-14.26L141.43-14.26Q140.54-12.74 140.54-10.58L140.54-10.58L140.54-0.65L142.09-0.65L142.09 0L131.87 0L131.87-0.65L133.85-0.65L133.85-16.49L131.87-16.49" fill="#fd3b3b" stroke="none" stroke-width="none" transform="translate(-93.94600486755371,9.669620993354108)" style="fill: rgb(255, 0, 251);"></path></g><g class="path" style="transform: scale(0.91); transform-origin: 68.359px 1.09962px; animation: 1s linear -0.06s infinite normal forwards running breath-333aa2b1-464c-4786-92ee-f0803c1d9adb;"><path d="M164.05-16.85L164.05-16.85L164.05-16.85Q162.47-16.85 161.78-15.12L161.78-15.12L161.78-15.12Q161.10-13.39 161.10-9.40L161.10-9.40L161.10-7.52L161.10-7.52Q161.10-3.96 161.89-2.41L161.89-2.41L161.89-2.41Q162.68-0.86 164.81-0.86L164.81-0.86L164.81-0.86Q166.93-0.86 168.19-2.30L168.19-2.30L168.19-2.30Q169.45-3.74 169.81-5.58L169.81-5.58L170.46-5.51L170.46-5.51Q169.78-2.41 167.94-1.04L167.94-1.04L167.94-1.04Q166.07 0.36 162.79 0.36L162.79 0.36L162.79 0.36Q158.62 0.36 156.38-1.89L156.38-1.89L156.38-1.89Q154.15-4.14 154.15-8.48L154.15-8.48L154.15-8.48Q154.15-12.82 156.69-15.16L156.69-15.16L156.69-15.16Q159.23-17.50 163.76-17.50L163.76-17.50L163.76-17.50Q166.97-17.50 168.66-16.25L168.66-16.25L168.66-16.25Q170.35-15.01 170.35-13.14L170.35-13.14L170.35-13.14Q170.35-11.27 169.54-10.40L169.54-10.40L169.54-10.40Q168.73-9.54 167.31-9.54L167.31-9.54L167.31-9.54Q165.89-9.54 165.02-10.30L165.02-10.30L165.02-10.30Q164.16-11.05 164.16-12.53L164.16-12.53L164.16-12.53Q164.16-13.18 164.34-13.82L164.34-13.82L165.53-13.82L165.53-13.82Q165.78-14.54 165.78-15.12L165.78-15.12L165.78-15.12Q165.78-16.85 164.05-16.85" fill="#fd3b3b" stroke="none" stroke-width="none" transform="translate(-93.94600486755371,9.669620993354108)" style="fill: rgb(245, 200, 10);"></path></g><g class="path" style="transform: scale(0.91); transform-origin: 86.15px 1.09962px; animation: 1s linear 0s infinite normal forwards running breath-333aa2b1-464c-4786-92ee-f0803c1d9adb;"><path d="M180.83 0.36L180.83 0.36Q176.18 0.36 173.86-2.03L173.86-2.03L173.86-2.03Q171.54-4.43 171.54-8.69L171.54-8.69L171.54-8.69Q171.54-12.96 174.15-15.23L174.15-15.23L174.15-15.23Q176.76-17.50 180.79-17.50L180.79-17.50L180.79-17.50Q188.96-17.50 188.64-9.29L188.64-9.29L178.49-9.29L178.49-7.88L178.49-7.88Q178.49-4.36 179.39-2.56L179.39-2.56L179.39-2.56Q180.29-0.76 182.52-0.76L182.52-0.76L182.52-0.76Q186.70-0.76 187.99-5.22L187.99-5.22L188.64-5.11L188.64-5.11Q187.96-2.52 186.17-1.08L186.17-1.08L186.17-1.08Q184.39 0.36 180.83 0.36L180.83 0.36zM178.52-11.77L178.52-10.01L182.23-10.01L182.23-11.77L182.23-11.77Q182.23-14.69 181.89-15.75L181.89-15.75L181.89-15.75Q181.55-16.81 180.52-16.81L180.52-16.81L180.52-16.81Q179.50-16.81 179.01-15.68L179.01-15.68L179.01-15.68Q178.52-14.54 178.52-11.77L178.52-11.77" fill="#fd3b3b" stroke="none" stroke-width="none" transform="translate(-93.94600486755371,9.669620993354108)" style="fill: rgb(253, 59, 59);"></path></g></g>
</g>
</g>
<style id="breath-333aa2b1-464c-4786-92ee-f0803c1d9adb" data-anikit="">@keyframes breath-333aa2b1-464c-4786-92ee-f0803c1d9adb
{
  0% {
    animation-timing-function: cubic-bezier(0.9647,0.2413,-0.0705,0.7911);
    transform: scale(0.9099999999999999);
  }
  51% {
    animation-timing-function: cubic-bezier(0.9226,0.2631,-0.0308,0.7628);
    transform: scale(1.02994);
  }
  100% {
    transform: scale(0.9099999999999999);
  }
}</style></svg>
